X: 434
T:the Ale is Dear
R:Reel
O:Scotland
M:4/4
%%RR_OriginalCollection: &lt;URL:http://www.leeds.ac.uk/music/Info/RRTuneBk
/&gt;
Z:Richard Robinson
K:Bm
f2ef B2fe | faef cA Ac | \
f2 ef B2 fe | fa ec B2 Bc :|
|:BB Bc d2 cB | AA AB cA Bc | \
BB Bc d2 cB | f2 ec B2 B2 :|

